img/svg/insta-icon.svg

<svg enable-background="new 0 0 21 21" height="21" viewBox="0 0 21 21" width="21" xmlns="http://www.w3.org/2000/svg"><path d="m18 0h-15c-1.65 0-3 1.35-3 3v15c0 1.65 1.35 3 3 3h15c1.65 0 3-1.35 3-3v-15c0-1.65-1.35-3-3-3zm-7.5 7c1.93 0 3.5 1.57 3.5 3.5s-1.57 3.5-3.5 3.5-3.5-1.57-3.5-3.5 1.57-3.5 3.5-3.5zm7.5 11h-15v-9h1.181c-.114.482-.181.983-.181 1.5 0 3.59 2.91 6.5 6.5 6.5s6.5-2.91 6.5-6.5c0-.517-.066-1.018-.181-1.5h1.181zm0-11h-4v-4h4z" fill="#fff"/></svg>

<svg xmlns="http://www.w3.org/2000/svg" width="21" height="21" viewBox="0 0 21 21"><path fill="#FFF" d="M18 0H3C1.35 0 0 1.35 0 3v15c0 1.65 1.35 3 3 3h15c1.65 0 3-1.35 3-3V3c0-1.65-1.35-3-3-3zm-7.5 7c1.93 0 3.5 1.57 3.5 3.5S12.43 14 10.5 14 7 12.43 7 10.5 8.57 7 10.5 7zM18 18H3V9h1.181A6.504 6.504 0 0 0 4 10.5a6.5 6.5 0 1 0 13 0 6.45 6.45 0 0 0-.181-1.5H18v9zm0-11h-4V3h4v4z"/></svg>
